X:37
T:The clock in the steeple
R:Reel
O:Ireland
S:O'Neill's 1248
B:O'Neill's 1248
Z:Transcription, minor arr., chords:Mike Long
M:C|
L:1/8
K:A
g|\
"A"a2ec "D"defg|"A"afec "E"dBBg|"A"a2ec "D"defg|"E"afed "(A)"cAAg|\
"A"a2ec "D"defg|
"A"afec "E"dBBc|"A"Ac (3(efg) "D"abaf|"E"ecBd "(A)"cAA|]\
B|\
"A"c2cA "D"d2dB|"A"efec "E"dBBd|
"A"c2cA "D"defg|"E"afed "(A)"cAAB|\
"A"c2cA "D"d2dB|"A"efec "E"dBBd|"A"Ac (3(efg) "D"abaf|"E"ecBd "(A)"cAA|]
